images/358832.svg

<?xml version="1.0" encoding="UTF-8"?>
<svg xmlns="http://www.w3.org/2000/svg" xmlns:xlink="http://www.w3.org/1999/xlink" width="300pt" height="300pt" viewBox="0 0 300 300" version="1.1">
<defs>
<g>
<symbol overflow="visible" id="glyph0-0">
<path style="stroke:none;" d="M 0.453125 1.59375 L 0.453125 -6.34375 L 4.953125 -6.34375 L 4.953125 1.59375 Z M 0.953125 1.09375 L 4.453125 1.09375 L 4.453125 -5.84375 L 0.953125 -5.84375 Z M 0.953125 1.09375 "/>
</symbol>
<symbol overflow="visible" id="glyph0-1">
<path style="stroke:none;" d="M 3.546875 -5.953125 C 2.898438 -5.953125 2.382812 -5.710938 2 -5.234375 C 1.625 -4.753906 1.4375 -4.101562 1.4375 -3.28125 C 1.4375 -2.445312 1.625 -1.789062 2 -1.3125 C 2.382812 -0.832031 2.898438 -0.59375 3.546875 -0.59375 C 4.191406 -0.59375 4.703125 -0.832031 5.078125 -1.3125 C 5.453125 -1.789062 5.640625 -2.445312 5.640625 -3.28125 C 5.640625 -4.101562 5.453125 -4.753906 5.078125 -5.234375 C 4.703125 -5.710938 4.191406 -5.953125 3.546875 -5.953125 Z M 3.546875 -6.6875 C 4.460938 -6.6875 5.195312 -6.375 5.75 -5.75 C 6.300781 -5.132812 6.578125 -4.3125 6.578125 -3.28125 C 6.578125 -2.238281 6.300781 -1.410156 5.75 -0.796875 C 5.195312 -0.179688 4.460938 0.125 3.546875 0.125 C 2.617188 0.125 1.878906 -0.179688 1.328125 -0.796875 C 0.773438 -1.410156 0.5 -2.238281 0.5 -3.28125 C 0.5 -4.3125 0.773438 -5.132812 1.328125 -5.75 C 1.878906 -6.375 2.617188 -6.6875 3.546875 -6.6875 Z M 3.546875 -6.6875 "/>
</symbol>
<symbol overflow="visible" id="glyph0-2">
<path style="stroke:none;" d="M 0.890625 -6.5625 L 1.765625 -6.5625 L 1.765625 -3.875 L 5 -3.875 L 5 -6.5625 L 5.890625 -6.5625 L 5.890625 0 L 5 0 L 5 -3.125 L 1.765625 -3.125 L 1.765625 0 L 0.890625 0 Z M 0.890625 -6.5625 "/>
</symbol>
</g>
</defs>
<g id="surface45813">
<rect x="0" y="0" width="300" height="300" style="fill:rgb(100%,100%,100%);fill-opacity:1;stroke:none;"/>
<path style="fill:none;stroke-width:1.2;stroke-linecap:butt;stroke-linejoin:miter;stroke:rgb(0%,0%,0%);stroke-opacity:1;stroke-miterlimit:10;" d="M 35.25 129.878906 L 39.878906 140.992188 "/>
<path style="fill:none;stroke-width:1.2;stroke-linecap:butt;stroke-linejoin:miter;stroke:rgb(100%,0%,0%);stroke-opacity:1;stroke-miterlimit:10;" d="M 39.878906 140.992188 L 44.507812 152.101562 "/>
<path style="fill:none;stroke-width:1.2;stroke-linecap:butt;stroke-linejoin:miter;stroke:rgb(100%,0%,0%);stroke-opacity:1;stroke-miterlimit:10;" d="M 44.507812 152.101562 L 56.445312 153.652344 "/>
<path style="fill:none;stroke-width:1.2;stroke-linecap:butt;stroke-linejoin:miter;stroke:rgb(0%,0%,0%);stroke-opacity:1;stroke-miterlimit:10;" d="M 56.445312 153.652344 L 68.382812 155.199219 "/>
<path style=" stroke:none;fill-rule:nonzero;fill:rgb(100%,100%,100%);fill-opacity:1;" d="M 40.507812 146.601562 L 48.507812 146.601562 L 48.507812 157.601562 L 40.507812 157.601562 Z M 40.507812 146.601562 "/>
<g style="fill:rgb(100%,0%,0%);fill-opacity:1;">
  <use xlink:href="#glyph0-1" x="40.507812" y="155.264648"/>
</g>
<path style="fill:none;stroke-width:1.2;stroke-linecap:butt;stroke-linejoin:miter;stroke:rgb(0%,0%,0%);stroke-opacity:1;stroke-miterlimit:10;" d="M 68.382812 155.199219 L 83 136.070312 "/>
<path style="fill:none;stroke-width:1.2;stroke-linecap:butt;stroke-linejoin:miter;stroke:rgb(0%,0%,0%);stroke-opacity:1;stroke-miterlimit:10;" d="M 74.34375 156.726562 L 86.039062 141.421875 "/>
<path style="fill:none;stroke-width:1.2;stroke-linecap:butt;stroke-linejoin:miter;stroke:rgb(0%,0%,0%);stroke-opacity:1;stroke-miterlimit:10;" d="M 77.640625 177.421875 L 68.382812 155.199219 "/>
<path style="fill:none;stroke-width:1.2;stroke-linecap:butt;stroke-linejoin:miter;stroke:rgb(0%,0%,0%);stroke-opacity:1;stroke-miterlimit:10;" d="M 83 136.070312 L 106.878906 139.164062 "/>
<path style="fill:none;stroke-width:1.2;stroke-linecap:butt;stroke-linejoin:miter;stroke:rgb(0%,0%,0%);stroke-opacity:1;stroke-miterlimit:10;" d="M 83 136.070312 L 78.371094 124.957031 "/>
<path style="fill:none;stroke-width:1.2;stroke-linecap:butt;stroke-linejoin:miter;stroke:rgb(100%,0%,0%);stroke-opacity:1;stroke-miterlimit:10;" d="M 78.371094 124.957031 L 73.746094 113.84375 "/>
<path style="fill:none;stroke-width:1.2;stroke-linecap:butt;stroke-linejoin:miter;stroke:rgb(0%,0%,0%);stroke-opacity:1;stroke-miterlimit:10;" d="M 106.878906 139.164062 L 116.132812 161.390625 "/>
<path style="fill:none;stroke-width:1.2;stroke-linecap:butt;stroke-linejoin:miter;stroke:rgb(0%,0%,0%);stroke-opacity:1;stroke-miterlimit:10;" d="M 102.574219 143.566406 L 109.980469 161.34375 "/>
<path style="fill:none;stroke-width:1.2;stroke-linecap:butt;stroke-linejoin:miter;stroke:rgb(0%,0%,0%);stroke-opacity:1;stroke-miterlimit:10;" d="M 116.132812 161.390625 L 101.515625 180.519531 "/>
<path style="fill:none;stroke-width:1.2;stroke-linecap:butt;stroke-linejoin:miter;stroke:rgb(0%,0%,0%);stroke-opacity:1;stroke-miterlimit:10;" d="M 116.132812 161.390625 L 140.007812 164.484375 "/>
<path style="fill:none;stroke-width:1.2;stroke-linecap:butt;stroke-linejoin:miter;stroke:rgb(0%,0%,0%);stroke-opacity:1;stroke-miterlimit:10;" d="M 101.515625 180.519531 L 77.640625 177.421875 "/>
<path style="fill:none;stroke-width:1.2;stroke-linecap:butt;stroke-linejoin:miter;stroke:rgb(0%,0%,0%);stroke-opacity:1;stroke-miterlimit:10;" d="M 99.855469 174.589844 L 80.753906 172.113281 "/>
<path style="fill:none;stroke-width:1.2;stroke-linecap:butt;stroke-linejoin:miter;stroke:rgb(0%,0%,0%);stroke-opacity:1;stroke-miterlimit:10;" d="M 140.007812 164.484375 L 149.265625 186.710938 "/>
<path style="fill:none;stroke-width:1.2;stroke-linecap:butt;stroke-linejoin:miter;stroke:rgb(0%,0%,0%);stroke-opacity:1;stroke-miterlimit:10;" d="M 146.164062 164.53125 L 153.570312 182.308594 "/>
<path style="fill:none;stroke-width:1.2;stroke-linecap:butt;stroke-linejoin:miter;stroke:rgb(100%,0%,0%);stroke-opacity:1;stroke-miterlimit:10;" d="M 154.628906 145.355469 L 147.320312 154.921875 "/>
<path style="fill:none;stroke-width:1.2;stroke-linecap:butt;stroke-linejoin:miter;stroke:rgb(0%,0%,0%);stroke-opacity:1;stroke-miterlimit:10;" d="M 147.320312 154.921875 L 140.007812 164.484375 "/>
<path style="fill:none;stroke-width:1.2;stroke-linecap:butt;stroke-linejoin:miter;stroke:rgb(0%,0%,0%);stroke-opacity:1;stroke-miterlimit:10;" d="M 149.265625 186.710938 L 173.140625 189.804688 "/>
<path style="fill:none;stroke-width:1.2;stroke-linecap:butt;stroke-linejoin:miter;stroke:rgb(0%,0%,0%);stroke-opacity:1;stroke-miterlimit:10;" d="M 170.527344 190.894531 L 175.15625 202.007812 "/>
<path style="fill:none;stroke-width:1.2;stroke-linecap:butt;stroke-linejoin:miter;stroke:rgb(100%,0%,0%);stroke-opacity:1;stroke-miterlimit:10;" d="M 175.15625 202.007812 L 179.785156 213.121094 "/>
<path style="fill:none;stroke-width:1.2;stroke-linecap:butt;stroke-linejoin:miter;stroke:rgb(0%,0%,0%);stroke-opacity:1;stroke-miterlimit:10;" d="M 175.757812 188.71875 L 180.386719 199.828125 "/>
<path style="fill:none;stroke-width:1.2;stroke-linecap:butt;stroke-linejoin:miter;stroke:rgb(100%,0%,0%);stroke-opacity:1;stroke-miterlimit:10;" d="M 180.386719 199.828125 L 185.015625 210.941406 "/>
<path style="fill:none;stroke-width:1.2;stroke-linecap:butt;stroke-linejoin:miter;stroke:rgb(0%,0%,0%);stroke-opacity:1;stroke-miterlimit:10;" d="M 173.140625 189.804688 L 187.761719 170.675781 "/>
<path style=" stroke:none;fill-rule:nonzero;fill:rgb(100%,100%,100%);fill-opacity:1;" d="M 178.398438 206.53125 L 186.398438 206.53125 L 186.398438 217.53125 L 178.398438 217.53125 Z M 178.398438 206.53125 "/>
<g style="fill:rgb(100%,0%,0%);fill-opacity:1;">
  <use xlink:href="#glyph0-1" x="178.398438" y="215.194336"/>
</g>
<path style="fill:none;stroke-width:1.2;stroke-linecap:butt;stroke-linejoin:miter;stroke:rgb(0%,0%,0%);stroke-opacity:1;stroke-miterlimit:10;" d="M 187.761719 170.675781 L 178.503906 148.453125 "/>
<path style="fill:none;stroke-width:1.2;stroke-linecap:butt;stroke-linejoin:miter;stroke:rgb(0%,0%,0%);stroke-opacity:1;stroke-miterlimit:10;" d="M 192.066406 166.277344 L 184.660156 148.496094 "/>
<path style="fill:none;stroke-width:1.2;stroke-linecap:butt;stroke-linejoin:miter;stroke:rgb(0%,0%,0%);stroke-opacity:1;stroke-miterlimit:10;" d="M 211.636719 173.773438 L 187.761719 170.675781 "/>
<path style="fill:none;stroke-width:1.2;stroke-linecap:butt;stroke-linejoin:miter;stroke:rgb(0%,0%,0%);stroke-opacity:1;stroke-miterlimit:10;" d="M 178.503906 148.453125 L 166.566406 146.90625 "/>
<path style="fill:none;stroke-width:1.2;stroke-linecap:butt;stroke-linejoin:miter;stroke:rgb(100%,0%,0%);stroke-opacity:1;stroke-miterlimit:10;" d="M 166.566406 146.90625 L 154.628906 145.355469 "/>
<path style="fill:none;stroke-width:1.2;stroke-linecap:butt;stroke-linejoin:miter;stroke:rgb(0%,0%,0%);stroke-opacity:1;stroke-miterlimit:10;" d="M 178.503906 148.453125 L 193.121094 129.324219 "/>
<path style=" stroke:none;fill-rule:nonzero;fill:rgb(100%,100%,100%);fill-opacity:1;" d="M 150.628906 139.855469 L 158.628906 139.855469 L 158.628906 150.855469 L 150.628906 150.855469 Z M 150.628906 139.855469 "/>
<g style="fill:rgb(100%,0%,0%);fill-opacity:1;">
  <use xlink:href="#glyph0-1" x="150.628906" y="148.518555"/>
</g>
<path style="fill:none;stroke-width:1.2;stroke-linecap:butt;stroke-linejoin:miter;stroke:rgb(0%,0%,0%);stroke-opacity:1;stroke-miterlimit:10;" d="M 193.121094 129.324219 L 217 132.417969 "/>
<path style="fill:none;stroke-width:1.2;stroke-linecap:butt;stroke-linejoin:miter;stroke:rgb(0%,0%,0%);stroke-opacity:1;stroke-miterlimit:10;" d="M 194.78125 135.25 L 213.882812 137.726562 "/>
<path style="fill:none;stroke-width:1.2;stroke-linecap:butt;stroke-linejoin:miter;stroke:rgb(0%,0%,0%);stroke-opacity:1;stroke-miterlimit:10;" d="M 193.121094 129.324219 L 188.496094 118.210938 "/>
<path style="fill:none;stroke-width:1.2;stroke-linecap:butt;stroke-linejoin:miter;stroke:rgb(100%,0%,0%);stroke-opacity:1;stroke-miterlimit:10;" d="M 188.496094 118.210938 L 183.867188 107.097656 "/>
<path style="fill:none;stroke-width:1.2;stroke-linecap:butt;stroke-linejoin:miter;stroke:rgb(0%,0%,0%);stroke-opacity:1;stroke-miterlimit:10;" d="M 217 132.417969 L 226.253906 154.644531 "/>
<path style="fill:none;stroke-width:1.2;stroke-linecap:butt;stroke-linejoin:miter;stroke:rgb(0%,0%,0%);stroke-opacity:1;stroke-miterlimit:10;" d="M 217 132.417969 L 224.308594 122.855469 "/>
<path style="fill:none;stroke-width:1.2;stroke-linecap:butt;stroke-linejoin:miter;stroke:rgb(100%,0%,0%);stroke-opacity:1;stroke-miterlimit:10;" d="M 224.308594 122.855469 L 231.617188 113.289062 "/>
<path style="fill:none;stroke-width:1.2;stroke-linecap:butt;stroke-linejoin:miter;stroke:rgb(0%,0%,0%);stroke-opacity:1;stroke-miterlimit:10;" d="M 226.253906 154.644531 L 211.636719 173.773438 "/>
<path style="fill:none;stroke-width:1.2;stroke-linecap:butt;stroke-linejoin:miter;stroke:rgb(0%,0%,0%);stroke-opacity:1;stroke-miterlimit:10;" d="M 220.292969 153.117188 L 208.597656 168.421875 "/>
<path style="fill:none;stroke-width:1.2;stroke-linecap:butt;stroke-linejoin:miter;stroke:rgb(0%,0%,0%);stroke-opacity:1;stroke-miterlimit:10;" d="M 226.253906 154.644531 L 238.195312 156.191406 "/>
<path style="fill:none;stroke-width:1.2;stroke-linecap:butt;stroke-linejoin:miter;stroke:rgb(100%,0%,0%);stroke-opacity:1;stroke-miterlimit:10;" d="M 238.195312 156.191406 L 250.132812 157.738281 "/>
<path style="fill:none;stroke-width:1.2;stroke-linecap:butt;stroke-linejoin:miter;stroke:rgb(0%,0%,0%);stroke-opacity:1;stroke-miterlimit:10;" d="M 211.636719 173.773438 L 216.265625 184.886719 "/>
<path style="fill:none;stroke-width:1.2;stroke-linecap:butt;stroke-linejoin:miter;stroke:rgb(100%,0%,0%);stroke-opacity:1;stroke-miterlimit:10;" d="M 216.265625 184.886719 L 220.894531 195.996094 "/>
<path style=" stroke:none;fill-rule:nonzero;fill:rgb(100%,100%,100%);fill-opacity:1;" d="M 213.894531 190.496094 L 228.894531 190.496094 L 228.894531 201.496094 L 213.894531 201.496094 Z M 213.894531 190.496094 "/>
<g style="fill:rgb(100%,0%,0%);fill-opacity:1;">
  <use xlink:href="#glyph0-1" x="213.894531" y="199.15918"/>
  <use xlink:href="#glyph0-2" x="221.236328" y="199.15918"/>
</g>
<path style="fill:none;stroke-width:1.2;stroke-linecap:butt;stroke-linejoin:miter;stroke:rgb(100%,0%,0%);stroke-opacity:1;stroke-miterlimit:10;" d="M 250.132812 157.738281 L 257.441406 148.175781 "/>
<path style="fill:none;stroke-width:1.2;stroke-linecap:butt;stroke-linejoin:miter;stroke:rgb(0%,0%,0%);stroke-opacity:1;stroke-miterlimit:10;" d="M 257.441406 148.175781 L 264.75 138.609375 "/>
<path style=" stroke:none;fill-rule:nonzero;fill:rgb(100%,100%,100%);fill-opacity:1;" d="M 246.132812 152.238281 L 254.132812 152.238281 L 254.132812 163.238281 L 246.132812 163.238281 Z M 246.132812 152.238281 "/>
<g style="fill:rgb(100%,0%,0%);fill-opacity:1;">
  <use xlink:href="#glyph0-1" x="246.132812" y="160.901367"/>
</g>
<path style="fill:none;stroke-width:1.2;stroke-linecap:butt;stroke-linejoin:miter;stroke:rgb(100%,0%,0%);stroke-opacity:1;stroke-miterlimit:10;" d="M 231.617188 113.289062 L 226.988281 102.175781 "/>
<path style="fill:none;stroke-width:1.2;stroke-linecap:butt;stroke-linejoin:miter;stroke:rgb(0%,0%,0%);stroke-opacity:1;stroke-miterlimit:10;" d="M 226.988281 102.175781 L 222.359375 91.066406 "/>
<path style=" stroke:none;fill-rule:nonzero;fill:rgb(100%,100%,100%);fill-opacity:1;" d="M 227.617188 107.789062 L 235.617188 107.789062 L 235.617188 118.789062 L 227.617188 118.789062 Z M 227.617188 107.789062 "/>
<g style="fill:rgb(100%,0%,0%);fill-opacity:1;">
  <use xlink:href="#glyph0-1" x="227.617188" y="116.452148"/>
</g>
<path style="fill:none;stroke-width:1.2;stroke-linecap:butt;stroke-linejoin:miter;stroke:rgb(100%,0%,0%);stroke-opacity:1;stroke-miterlimit:10;" d="M 183.867188 107.097656 L 191.175781 97.535156 "/>
<path style="fill:none;stroke-width:1.2;stroke-linecap:butt;stroke-linejoin:miter;stroke:rgb(0%,0%,0%);stroke-opacity:1;stroke-miterlimit:10;" d="M 191.175781 97.535156 L 198.484375 87.96875 "/>
<path style=" stroke:none;fill-rule:nonzero;fill:rgb(100%,100%,100%);fill-opacity:1;" d="M 179.867188 101.597656 L 187.867188 101.597656 L 187.867188 112.597656 L 179.867188 112.597656 Z M 179.867188 101.597656 "/>
<g style="fill:rgb(100%,0%,0%);fill-opacity:1;">
  <use xlink:href="#glyph0-1" x="179.867188" y="110.260742"/>
</g>
<path style="fill:none;stroke-width:1.2;stroke-linecap:butt;stroke-linejoin:miter;stroke:rgb(100%,0%,0%);stroke-opacity:1;stroke-miterlimit:10;" d="M 73.746094 113.84375 L 81.054688 104.28125 "/>
<path style="fill:none;stroke-width:1.2;stroke-linecap:butt;stroke-linejoin:miter;stroke:rgb(0%,0%,0%);stroke-opacity:1;stroke-miterlimit:10;" d="M 81.054688 104.28125 L 88.363281 94.714844 "/>
<path style=" stroke:none;fill-rule:nonzero;fill:rgb(100%,100%,100%);fill-opacity:1;" d="M 69.746094 108.34375 L 77.746094 108.34375 L 77.746094 119.34375 L 69.746094 119.34375 Z M 69.746094 108.34375 "/>
<g style="fill:rgb(100%,0%,0%);fill-opacity:1;">
  <use xlink:href="#glyph0-1" x="69.746094" y="117.006836"/>
</g>
</g>
</svg>

<svg xmlns="http://www.w3.org/2000/svg" xmlns:xlink="http://www.w3.org/1999/xlink" width="300pt" height="300pt" viewBox="0 0 300 300"><defs><symbol overflow="visible"><path d="M.453 1.594v-7.938h4.5v7.938zm.5-.5h3.5v-6.938h-3.5zm0 0"/></symbol><symbol overflow="visible" id="a"><path d="M3.547-5.953c-.65 0-1.164.242-1.547.72-.375.48-.563 1.13-.563 1.952 0 .835.188 1.49.563 1.967.383.48.898.72 1.547.72.644 0 1.156-.24 1.53-.72.376-.476.564-1.132.564-1.968 0-.822-.187-1.474-.562-1.954-.375-.477-.887-.72-1.53-.72zm0-.734c.914 0 1.648.312 2.203.937.55.617.828 1.438.828 2.47 0 1.042-.277 1.87-.828 2.483-.555.617-1.29.922-2.203.922-.93 0-1.668-.305-2.22-.922C.774-1.41.5-2.237.5-3.28c0-1.033.273-1.853.828-2.47.55-.625 1.29-.938 2.22-.938zm0 0"/></symbol><symbol overflow="visible" id="b"><path d="M.89-6.563h.876v2.688H5v-2.688h.89V0H5v-3.125H1.766V0H.89zm0 0"/></symbol></defs><g><path fill="#fff" d="M0 0h300v300H0z"/><path d="M35.25 129.88l4.63 11.112" stroke-width="1.2" stroke="#000" stroke-miterlimit="10" fill="none"/><path d="M39.88 140.992l4.628 11.11M44.508 152.102l11.937 1.55" stroke-width="1.2" stroke="#f00" stroke-miterlimit="10" fill="none"/><path d="M56.445 153.652l11.938 1.547" stroke-width="1.2" stroke="#000" stroke-miterlimit="10" fill="none"/><path d="M40.508 146.602h8v11h-8zm0 0" fill="#fff"/><use xlink:href="#a" x="40.508" y="155.265" fill="#f00"/><path d="M68.383 155.2L83 136.07M74.344 156.727l11.695-15.305M77.64 177.422L68.384 155.2M83 136.07l23.88 3.094M83 136.07l-4.63-11.113" stroke-width="1.2" stroke="#000" stroke-miterlimit="10" fill="none"/><path d="M78.37 124.957l-4.624-11.113" stroke-width="1.2" stroke="#f00" stroke-miterlimit="10" fill="none"/><path d="M106.88 139.164l9.253 22.227M102.574 143.566l7.406 17.778M116.133 161.39l-14.617 19.13M116.133 161.39l23.875 3.094M101.516 180.52l-23.875-3.098M99.855 174.59l-19.1-2.477M140.008 164.484l9.258 22.227M146.164 164.53l7.406 17.78" stroke-width="1.2" stroke="#000" stroke-miterlimit="10" fill="none"/><path d="M154.63 145.355l-7.31 9.567" stroke-width="1.2" stroke="#f00" stroke-miterlimit="10" fill="none"/><path d="M147.32 154.922l-7.312 9.562M149.266 186.71l23.875 3.095M170.527 190.895l4.63 11.113" stroke-width="1.2" stroke="#000" stroke-miterlimit="10" fill="none"/><path d="M175.156 202.008l4.63 11.113" stroke-width="1.2" stroke="#f00" stroke-miterlimit="10" fill="none"/><path d="M175.758 188.72l4.63 11.108" stroke-width="1.2" stroke="#000" stroke-miterlimit="10" fill="none"/><path d="M180.387 199.828l4.63 11.113" stroke-width="1.2" stroke="#f00" stroke-miterlimit="10" fill="none"/><path d="M173.14 189.805l14.622-19.13" stroke-width="1.2" stroke="#000" stroke-miterlimit="10" fill="none"/><path d="M178.398 206.53h8v11h-8zm0 0" fill="#fff"/><use xlink:href="#a" x="178.398" y="215.194" fill="#f00"/><path d="M187.762 170.676l-9.258-22.223M192.066 166.277l-7.406-17.78M211.637 173.773l-23.875-3.097M178.504 148.453l-11.938-1.547" stroke-width="1.2" stroke="#000" stroke-miterlimit="10" fill="none"/><path d="M166.566 146.906l-11.937-1.55" stroke-width="1.2" stroke="#f00" stroke-miterlimit="10" fill="none"/><path d="M178.504 148.453l14.617-19.13" stroke-width="1.2" stroke="#000" stroke-miterlimit="10" fill="none"/><path d="M150.63 139.855h8v11h-8zm0 0" fill="#fff"/><use xlink:href="#a" x="150.629" y="148.519" fill="#f00"/><path d="M193.12 129.324l23.88 3.094M194.78 135.25l19.103 2.477M193.12 129.324l-4.624-11.113" stroke-width="1.2" stroke="#000" stroke-miterlimit="10" fill="none"/><path d="M188.496 118.21l-4.63-11.112" stroke-width="1.2" stroke="#f00" stroke-miterlimit="10" fill="none"/><path d="M217 132.418l9.254 22.227M217 132.418l7.31-9.563" stroke-width="1.2" stroke="#000" stroke-miterlimit="10" fill="none"/><path d="M224.31 122.855l7.307-9.566" stroke-width="1.2" stroke="#f00" stroke-miterlimit="10" fill="none"/><path d="M226.254 154.645l-14.617 19.128M220.293 153.117l-11.695 15.305M226.254 154.645l11.94 1.546" stroke-width="1.2" stroke="#000" stroke-miterlimit="10" fill="none"/><path d="M238.195 156.19l11.938 1.548" stroke-width="1.2" stroke="#f00" stroke-miterlimit="10" fill="none"/><path d="M211.637 173.773l4.63 11.114" stroke-width="1.2" stroke="#000" stroke-miterlimit="10" fill="none"/><path d="M216.266 184.887l4.63 11.11" stroke-width="1.2" stroke="#f00" stroke-miterlimit="10" fill="none"/><path d="M213.895 190.496h15v11h-15zm0 0" fill="#fff"/><g fill="#f00"><use xlink:href="#a" x="213.895" y="199.159"/><use xlink:href="#b" x="221.236" y="199.159"/></g><path d="M250.133 157.738l7.308-9.562" stroke-width="1.2" stroke="#f00" stroke-miterlimit="10" fill="none"/><path d="M257.44 148.176l7.31-9.567" stroke-width="1.2" stroke="#000" stroke-miterlimit="10" fill="none"/><path d="M246.133 152.238h8v11h-8zm0 0" fill="#fff"/><use xlink:href="#a" x="246.133" y="160.901" fill="#f00"/><path d="M231.617 113.29l-4.63-11.114" stroke-width="1.2" stroke="#f00" stroke-miterlimit="10" fill="none"/><path d="M226.988 102.176l-4.63-11.11" stroke-width="1.2" stroke="#000" stroke-miterlimit="10" fill="none"/><path d="M227.617 107.79h8v11h-8zm0 0" fill="#fff"/><use xlink:href="#a" x="227.617" y="116.452" fill="#f00"/><path d="M183.867 107.098l7.31-9.563" stroke-width="1.2" stroke="#f00" stroke-miterlimit="10" fill="none"/><path d="M191.176 97.535l7.308-9.566" stroke-width="1.2" stroke="#000" stroke-miterlimit="10" fill="none"/><path d="M179.867 101.598h8v11h-8zm0 0" fill="#fff"/><use xlink:href="#a" x="179.867" y="110.261" fill="#f00"/><path d="M73.746 113.844l7.31-9.563" stroke-width="1.2" stroke="#f00" stroke-miterlimit="10" fill="none"/><path d="M81.055 104.28l7.308-9.565" stroke-width="1.2" stroke="#000" stroke-miterlimit="10" fill="none"/><path d="M69.746 108.344h8v11h-8zm0 0" fill="#fff"/><use xlink:href="#a" x="69.746" y="117.007" fill="#f00"/></g></svg>
